cached_logos/new-context-kcsp.svg

<svg viewBox="-9.78 -9.78 508.56 404.56" xmlns="http://www.w3.org/2000/svg"><title>New Context (KCSP)</title><defs><clipPath id="a"><path d="M0 0h489.4v385.4H0z"/></clipPath></defs><g clip-path="url(#a)"><g fill="#3FAE2A"><path d="M427 43.1c-33.2 22.6-59.3 17-85.2-5.9-.9-.8-1.7-1.4-2.4-2.1C314 13.2 281 0 244.9 0s-69.2 13.3-94.6 35.2c-.8.6-1.5 1.3-2.4 2.1-25.9 22.8-52.1 28.4-85.2 5.9 17 17.9 34.5 30.9 50.9 40.4C104.9 102.2 100 123 100 145c0 80 64.9 144.9 144.9 144.9S389.8 225 389.8 145c0-21.9-4.9-42.7-13.6-61.4 16.3-9.5 33.9-22.5 50.8-40.5zM314.1 69.3c-2.4-.2-4.9-.4-7.4-.4-25.1 0-47.5 12-61.8 30.4-14.3-18.5-36.7-30.4-61.8-30.4-2.5 0-4.9.1-7.4.4 18.2-16.7 42.5-26.9 69.2-26.9 26.6 0 50.9 10.2 69.2 26.9zm33.3 75.6c0 56.6-45.9 102.5-102.6 102.5-56.6 0-102.6-45.9-102.6-102.5 0-15.6 3.5-30.4 9.7-43.6 11.9 4.2 21.6 6.7 27.9 8.5 29.9 8.4 46.6 24.1 56.3 63.3 3.9 18.6 7.1 38.5 8.5 53.5 1.4-14.8 4.6-34.3 8.3-52.5 9.7-40 26.5-55.9 56.6-64.4 6.3-1.8 16-4.2 27.9-8.5 6.5 13.4 10 28.1 10 43.7z"/><path d="M185.9 133.3l-.1-.1c-7.7-3-24.1-7.3-27.3-12 3.2 20.5 7.7 42.4 31.8 50.4.4.1.8.2 1.2.4 6.9 2.1 15.2 3.2 25.6 2.7-2.6-5-5.8-13.6-9.7-21.1-4.5-8.5-11.4-16.5-21.5-20.3zm117.9 0c-10.1 3.8-17 11.8-21.5 20.3-4 7.6-7.1 16.1-9.7 21.1 10.3.4 18.7-.6 25.6-2.7.4-.1.8-.3 1.2-.4 24.1-8 28.7-29.9 31.8-50.4-3.2 4.6-19.6 8.9-27.3 12l-.1.1z"/></g><path fill="#383A35" d="M106.9 382.6c-1.7-.1-3.1-1.3-3.6-2.9l-11.4-38.3 7.7-2.3 8.3 28 6.6-14.6c.6-1.4 2.1-2.4 3.7-2.4s3 .9 3.7 2.4l6.6 14.6 8.3-28 7.7 2.3-11.5 38.4c-.5 1.6-1.9 2.7-3.6 2.9-1.8 0-3.3-.9-3.9-2.4l-7.3-16.3-7.3 16.3c-.6 1.4-2.1 2.4-3.6 2.4l-.4-.1zm-51.5-.3c-2.2 0-4-1.8-4-4v-35.1c0-2.2 1.8-4 4-4h25.3v8H59.4v27.1h21.3v8H55.4z"/><path fill="#3FAE2A" d="M64.4 356.7h14.8v8H64.4z"/><path fill="#383A35" d="M172.5 359.5c.4-10.9 7.4-19.6 17.5-21.3 1.1-.2 2.4-.3 3.7-.3 3.7 0 7.6.8 10.9 2.2l.9.4-3.3 7.6-.9-.4c-2.3-1-5.1-1.6-7.6-1.6-.8 0-1.6.1-2.3.2-5.1.9-10.6 5.6-10.6 14 0 8.5 5.5 13.2 10.6 14.1.7.1 1.5.2 2.3.2 2.5 0 5.3-.6 7.6-1.6l.9-.4 3.3 7.6-.9.4c-3.3 1.4-7.2 2.2-10.9 2.2-1.3 0-2.5-.1-3.7-.3-10-1.7-17-10.3-17.5-21.1v-1.9zm201.7 21.8c-2.1 0-3.9-1.7-3.9-3.9v-33.9c0-2.1 1.7-3.9 3.9-3.9h24.4v7.7h-20.5v26.1h20.5v7.7h-24.4v.2z"/><path fill="#3FAE2A" d="M382.6 356.5h14.6v7.7h-14.6z"/><path fill="#383A35" d="M419.6 341.5c-.7-1-1.9-1.5-3.1-1.5-.8 0-1.6.3-2.3.8-.8.6-1.4 1.5-1.5 2.6-.1 1 .1 2 .7 2.9l11.6 15.2-13.9 19.8h6.7c2.3 0 3.4-.9 4.8-2.9l7.3-10.4 10.1 13.2c.7 1 1.9 1.5 3.1 1.5.9 0 1.6-.3 2.3-.8.8-.6 1.4-1.5 1.5-2.5.2-1-.1-2-.7-2.9l-26.6-35zm28.1-1.5h-7c-2.1.1-3.2 1-4.5 2.9l-5.2 7.6 4.9 6.5 11.8-17zm10.2-.3v7.7h10.6c.6 0 1.2.6 1.2 1.3v32.2h7.7v-32.2c0-.7.6-1.3 1.2-1.3h10.8v-7.7h-31.5zm-132 0v7.7h10.6c.6 0 1.2.6 1.2 1.3v32.2h7.7v-32.2c0-.7.6-1.3 1.2-1.3h10.8v-7.7h-31.5zm-21.3-.1v28.6c-5.3-8.2-14.2-21.8-16.7-25.7l-.9-1.4c-.5-.8-1.6-1.3-2.6-1.3h-7.1v41.7h7.7v-29.1c8 12.2 16.2 24.9 16.9 26.1 1.2 2 3.1 3.2 5.1 3.2.4 0 .9-.1 1.3-.2 1.9-.5 4-2.4 4-6v-35.8h-7.7v-.1zm-276.1-.8v29.7c-5.5-8.5-14.8-22.7-17.4-26.7l-1-1.5c-.6-.9-1.7-1.4-2.7-1.4H0v43.2h8v-30.2c8.2 12.6 16.8 25.8 17.6 27 1.3 2.1 3.2 3.3 5.3 3.3.5 0 .9-.1 1.4-.2 2-.6 4.1-2.5 4.1-6.3v-36.9h-7.9z"/><path fill="#3FAE2A" d="M240.6 336.2c-13.6 0-24.6 11-24.6 24.6 0 13.6 11 24.6 24.6 24.6 13.6 0 24.6-11 24.6-24.6-.1-13.6-11.1-24.6-24.6-24.6zm0 40.2c-8.6 0-15.6-7-15.6-15.5 0-8.6 7-15.6 15.6-15.6s15.5 7 15.5 15.6c0 8.5-7 15.5-15.5 15.5z"/></g></svg>

<?xml version="1.0" standalone="no"?><!-- Generator: Gravit.io --><svg xmlns="http://www.w3.org/2000/svg" xmlns:xlink="http://www.w3.org/1999/xlink" style="isolation:isolate" viewBox="-10.17999999999995 -8.099999999999966 508.56 400.40000000000003"  ><defs><clipPath id="_clipPath_P9lJekElUiz8s1hFUmDYJwk95mHTK3w3"><rect width="489.4" height="385.4"/></clipPath></defs><g clip-path="url(#_clipPath_P9lJekElUiz8s1hFUmDYJwk95mHTK3w3)"><g id="Group"><path d=" M 427 43.1 C 393.8 65.7 367.7 60.1 341.8 37.2 C 340.9 36.4 340.1 35.8 339.4 35.1 C 314 13.2 281 0 244.9 0 C 208.8 0 175.7 13.3 150.3 35.2 C 149.5 35.8 148.8 36.5 147.9 37.3 C 122 60.1 95.8 65.7 62.7 43.2 C 79.7 61.1 97.2 74.1 113.6 83.6 C 104.9 102.2 100 123 100 145 C 100 225 164.9 289.9 244.9 289.9 C 324.9 289.9 389.8 225 389.8 145 C 389.8 123.1 384.9 102.3 376.2 83.6 C 392.5 74.1 410.1 61.1 427 43.1 Z  M 314.1 69.3 C 311.7 69.1 309.2 68.9 306.7 68.9 C 281.6 68.9 259.2 80.9 244.9 99.3 C 230.6 80.8 208.2 68.9 183.1 68.9 C 180.6 68.9 178.2 69 175.7 69.3 C 193.9 52.6 218.2 42.4 244.9 42.4 C 271.5 42.4 295.8 52.6 314.1 69.3 Z  M 347.4 144.9 C 347.4 201.5 301.5 247.4 244.8 247.4 C 188.2 247.4 142.2 201.5 142.2 144.9 C 142.2 129.3 145.7 114.5 151.9 101.3 C 163.8 105.5 173.5 108 179.8 109.8 C 209.7 118.2 226.4 133.9 236.1 173.1 C 240 191.7 243.2 211.6 244.6 226.6 C 246 211.8 249.2 192.3 252.9 174.1 L 252.9 174.1 C 262.6 134.1 279.4 118.2 309.5 109.7 C 315.8 107.9 325.5 105.5 337.4 101.2 C 343.9 114.6 347.4 129.3 347.4 144.9 Z " fill="rgb(63,174,42)"/><path d=" M 185.9 133.3 L 185.8 133.2 C 178.1 130.2 161.7 125.9 158.5 121.2 C 161.7 141.7 166.2 163.6 190.3 171.6 C 190.7 171.7 191.1 171.8 191.5 172 C 198.4 174.1 206.7 175.2 217.1 174.7 C 214.5 169.7 211.3 161.1 207.4 153.6 C 202.9 145.1 196 137.1 185.9 133.3 Z " fill="rgb(63,174,42)"/><path d=" M 303.8 133.3 C 293.7 137.1 286.8 145.1 282.3 153.6 C 278.3 161.2 275.2 169.7 272.6 174.7 C 282.9 175.1 291.3 174.1 298.2 172 C 298.6 171.9 299 171.7 299.4 171.6 C 323.5 163.6 328.1 141.7 331.2 121.2 C 328 125.8 311.6 130.1 303.9 133.2 L 303.8 133.3 Z " fill="rgb(63,174,42)"/></g><g id="Group"><path d=" M 106.9 382.6 C 105.2 382.5 103.8 381.3 103.3 379.7 L 91.9 341.4 L 99.6 339.1 L 107.9 367.1 L 114.5 352.5 C 115.1 351.1 116.6 350.1 118.2 350.1 C 119.8 350.1 121.2 351 121.9 352.5 L 128.5 367.1 L 136.8 339.1 L 144.5 341.4 L 133 379.8 C 132.5 381.4 131.1 382.5 129.4 382.7 C 129.4 382.7 129.4 382.7 129.4 382.7 C 127.6 382.7 126.1 381.8 125.5 380.3 L 118.2 364 L 110.9 380.3 C 110.3 381.7 108.8 382.7 107.3 382.7 L 106.9 382.6 Z " fill="rgb(56,58,53)"/><path d=" M 55.4 382.3 C 53.2 382.3 51.4 380.5 51.4 378.3 L 51.4 343.2 C 51.4 341 53.2 339.2 55.4 339.2 L 80.7 339.2 L 80.7 347.2 L 59.4 347.2 L 59.4 374.3 L 80.7 374.3 L 80.7 382.3 L 55.4 382.3 Z " fill="rgb(56,58,53)"/><rect x="64.4" y="356.7" width="14.8" height="8" transform="matrix(1,0,0,1,0,0)" fill="rgb(63,174,42)"/><path d=" M 172.5 359.5 C 172.9 348.6 179.9 339.9 190 338.2 C 191.1 338 192.4 337.9 193.7 337.9 C 197.4 337.9 201.3 338.7 204.6 340.1 L 205.5 340.5 L 202.2 348.1 L 201.3 347.7 C 199 346.7 196.2 346.1 193.7 346.1 C 192.9 346.1 192.1 346.2 191.4 346.3 C 186.3 347.2 180.8 351.9 180.8 360.3 C 180.8 368.8 186.3 373.5 191.4 374.4 C 192.1 374.5 192.9 374.6 193.7 374.6 C 196.2 374.6 199 374 201.3 373 L 202.2 372.6 L 205.5 380.2 L 204.6 380.6 C 201.3 382 197.4 382.8 193.7 382.8 C 192.4 382.8 191.2 382.7 190 382.5 C 180 380.8 173 372.2 172.5 361.4 C 172.5 360.8 172.5 360 172.5 359.5 Z " fill="rgb(56,58,53)"/><path d=" M 374.2 381.3 C 372.1 381.3 370.3 379.6 370.3 377.4 L 370.3 343.5 C 370.3 341.4 372 339.6 374.2 339.6 L 398.6 339.6 L 398.6 347.3 L 378.1 347.3 L 378.1 373.4 L 398.6 373.4 L 398.6 381.1 L 374.2 381.1 L 374.2 381.3 Z " fill="rgb(56,58,53)"/><rect x="382.6" y="356.5" width="14.6" height="7.7" transform="matrix(1,0,0,1,0,0)" fill="rgb(63,174,42)"/><path d=" M 419.6 341.5 C 418.9 340.5 417.7 340 416.5 340 C 415.7 340 414.9 340.3 414.2 340.8 C 413.4 341.4 412.8 342.3 412.7 343.4 C 412.6 344.4 412.8 345.4 413.4 346.3 L 425 361.5 L 411.1 381.3 L 417.8 381.3 C 420.1 381.3 421.2 380.4 422.6 378.4 L 429.9 368 L 440 381.2 C 440.7 382.2 441.9 382.7 443.1 382.7 C 444 382.7 444.7 382.4 445.4 381.9 C 446.2 381.3 446.8 380.4 446.9 379.4 C 447.1 378.4 446.8 377.4 446.2 376.5 L 419.6 341.5 Z " fill="rgb(56,58,53)"/><path d=" M 447.7 340 L 440.7 340 C 438.6 340.1 437.5 341 436.2 342.9 L 436.2 342.9 L 431 350.5 L 435.9 357 L 447.7 340 Z " fill="rgb(56,58,53)"/><path d=" M 457.9 339.7 L 457.9 347.4 L 468.5 347.4 C 469.1 347.4 469.7 348 469.7 348.7 C 469.7 348.7 469.7 348.7 469.7 348.7 L 469.7 380.9 L 477.4 380.9 L 477.4 348.7 C 477.4 348 478 347.4 478.6 347.4 L 489.4 347.4 L 489.4 339.7 L 457.9 339.7 L 457.9 339.7 Z " fill="rgb(56,58,53)"/><path d=" M 325.9 339.7 L 325.9 347.4 L 336.5 347.4 C 337.1 347.4 337.7 348 337.7 348.7 C 337.7 348.7 337.7 348.7 337.7 348.7 L 337.7 380.9 L 345.4 380.9 L 345.4 348.7 C 345.4 348 346 347.4 346.6 347.4 L 357.4 347.4 L 357.4 339.7 L 325.9 339.7 L 325.9 339.7 Z " fill="rgb(56,58,53)"/><path d=" M 304.6 339.6 L 304.6 368.2 C 299.3 360 290.4 346.4 287.9 342.5 L 287 341.1 L 287 341.1 C 286.5 340.3 285.4 339.8 284.4 339.8 L 277.3 339.8 L 277.3 381.5 L 285 381.5 L 285 352.4 C 293 364.6 301.2 377.3 301.9 378.5 C 303.1 380.5 305 381.7 307 381.7 C 307.4 381.7 307.9 381.6 308.3 381.5 C 310.2 381 312.3 379.1 312.3 375.5 L 312.3 339.7 L 304.6 339.7 L 304.6 339.6 Z " fill="rgb(56,58,53)"/><path d=" M 28.5 338.8 L 28.5 368.5 C 23 360 13.7 345.8 11.1 341.8 L 10.1 340.3 L 10.1 340.3 C 9.5 339.4 8.4 338.9 7.4 338.9 L 0 338.9 L 0 382.1 L 8 382.1 L 8 351.9 C 16.2 364.5 24.8 377.7 25.6 378.9 C 26.9 381 28.8 382.2 30.9 382.2 C 31.4 382.2 31.8 382.1 32.3 382 C 34.3 381.4 36.4 379.5 36.4 375.7 L 36.4 338.8 L 28.5 338.8 Z " fill="rgb(56,58,53)"/></g><path d=" M 240.6 336.2 C 227 336.2 216 347.2 216 360.8 C 216 374.4 227 385.4 240.6 385.4 C 254.2 385.4 265.2 374.4 265.2 360.8 C 265.1 347.2 254.1 336.2 240.6 336.2 Z  M 240.6 376.4 C 232 376.4 225 369.4 225 360.9 C 225 352.3 232 345.3 240.6 345.3 C 249.2 345.3 256.1 352.3 256.1 360.9 C 256.1 369.4 249.1 376.4 240.6 376.4 Z " fill="rgb(63,174,42)"/></g></svg>
